X:1
T:James Gibb editions
T:Io spero - Vecchi
T:#
%%score [ 1 2 3 ]
L:1/8
Q:1/4=108
M:4/4
K:Bb
V:1 treble nm="Soprano " snm="S"
V:2 treble nm="Alto" snm="A"
V:3 bass nm="Bass" snm="B"
V:1
"^Orazio Vecchi\n(1550-1605)""^Io spero" G4 B4 | A (A>GA/B/ A2) B2 | (c>d B>c A>B G>)A | %3
w: Io spe-|r'e te\- * * * * m'e|ar\- * * * * * * d'e|
w: Io vo-|lo so\- * * * * pra~~il|cie\- * * * * * lo, e~~in|
w: Io pian-|go~~e ri\- * * * * do|de' * * * * * * gra-|
 AB A2 G4 ::[M:6/4] B2- c2 c2 d4 d2 | d2 c2 B2 A4 A2 | F2 A2 B2 c4 c2 | B2 A2 G2 ^F2 G2 A2 | %8
w: mi di- sfac- cio,|E que- st'ar- do- re|ch'ò den- tr'al co- re|Non mi vuol vi- vo,|non mi vuol vi- vo~~e non|
w: ter- ra giac- cio,|E~~in tal pen- sie- ro|io mi dis- pe- ro|Chè nul- la strin- go,|chè nul- la strin- go~~e tut-|
w: vo- si ho- mei,|E~~in ta- le sta- to|son con- den- na- to|Per don- na chè par,|per don- na che par bel-|
 B2 A2 G2 ^F4 G2 | A3 A A2 A2 A4 | G6 :| %11
w: mi trae d'im- pac- cio,~e|non mi trae d'im- pac-|cio.|
w: to~~il mon- do~~ab- brac- cio,~~e|tut- to~~il mon- do~~ab- brac-|cio.|
w: la~~a- gli~~oc- chi mie- i,|bel- la~~a- gli~~oc- chi mie-|i.|
V:2
 D4 G4 | ^F (F>=EF/G/ F2) G2 | (A>B G>A !courtesy!=F>G =E>)E | ^F G2 F G4 :: %4
w: Io spe-|r'e te- * * * * m'e|ar- * * * * * * d'e|mi di- sfac- cio,|
w: Io vo-|lo so- * * * * pra~~il|cie- * * * * * lo, e~~in|ter- ra giac- cio,|
w: Io pian-|go~~e ri- * * * * do|de' * * * * * * gra-|vo- si ho- mei,|
[M:6/4] D2 F2 G2 F4 F2 | F2 A2 B2 c4 c2 | d2 c2 B2 A4 G2 | F2 F2 G2 A2 B2 A2 | G2 F2 G2 A4 G2 | %9
w: E que- st'ar- do- re|ch'ò den- tr'al co- re|Non mi vuol vi- vo,|non mi vuol vi- vo~~e non|mi trae d'im- pac- cio,~e|
w: E~~in tal pen- sie- ro|io mi dis- pe- ro|Chè nul- la strin- go,|chè nul- la strin- go~~e tut-|to~~il mon- do~~ab- brac- cio,~~e|
w: E~~in ta- le sta- to|son con- den- na- to|Per don- na chè par,|per don- na che par bel-|la~~a- gli~~oc- chi mie- i,|
 ^F3 F F2 =E2 F4 | G6 :| %11
w: non mi trae d'im- pac-|cio.|
w: tut- to~~il mon- do~~ab- brac-|cio.|
w: bel- la~~a- gli~~oc- chi mie-|i.|
V:3
 G,4 G,,4 | D,2 D,4 G,2 | F,2 !courtesy!_E,2 D,2 C,2 | D,4 G,,4 ::[M:6/4] G,2 F,2 E,2 D,4 D,2 | %5
w: Io spe-|r'e te- m'e|ar- d'e mi di-|sfac- cio,|E que- st'ar- do- re|
w: Io vo-|lo so- pra~il|cie- lo,~~e~~in ter- ra|giac- cio,|E~~in tal pen- sie- ro|
w: Io pian-|go~~e ri- do|de' gra- vo- si|ho- mei,|E~~in ta- le sta- to|
 B,,2 A,,2 G,,2 F,,4 F,,2 | B,,2 F,2 G,2 F,4 C,2 | D,6 D,6 | D,4 D,2 D,4 G,,2 | %9
w: ch'ò den- tr'al co- re|Non mi vuol vi- vo~~e|non mi|trae d'im- pac- cio,~e|
w: io mi dis- pe- ro|Chè nul- la strin- go~~e|tut- to~~il|mon- do~~ab- brac- cio,~~e|
w: son con- den- na- to|Per don- na chè par|bel- la~~a-|gli~~oc- chi mie- i,|
 D,3 D, D,2 ^C,2 D,4 | G,,6 :| %11
w: non mi trae d'im- pac-|cio.|
w: tut- to~~il mon- do~~ab- brac-|cio.|
w: bel- la~~a- gli~~oc- chi mie-|i.|

